sourses/img/clock.svg

<svg width="24" height="24" fill="none" xmlns="http://www.w3.org/2000/svg"><path fill-rule="evenodd" clip-rule="evenodd" d="M16 11h-3V8a1 1 0 10-2 0v4a1 1 0 001 1h4a1 1 0 100-2zm-4 9c-4.411 0-8-3.589-8-8s3.589-8 8-8 8 3.589 8 8-3.589 8-8 8zm0-18C6.486 2 2 6.486 2 12s4.486 10 10 10 10-4.486 10-10S17.514 2 12 2z" fill="#D7A950"/></svg>

<svg width="24" height="24" viewBox="0 0 24 24" fill="none" xmlns="http://www.w3.org/2000/svg">
<g id="Icon/Outline/clock">
<path id="Mask" fill-rule="evenodd" clip-rule="evenodd" d="M16 11H13V8C13 7.447 12.552 7 12 7C11.448 7 11 7.447 11 8V12C11 12.553 11.448 13 12 13H16C16.553 13 17 12.553 17 12C17 11.447 16.553 11 16 11ZM12 20C7.589 20 4 16.411 4 12C4 7.589 7.589 4 12 4C16.411 4 20 7.589 20 12C20 16.411 16.411 20 12 20ZM12 2C6.486 2 2 6.486 2 12C2 17.514 6.486 22 12 22C17.514 22 22 17.514 22 12C22 6.486 17.514 2 12 2Z" fill="#D7A950"/>
</g>
</svg>
